icons/pencil-circle.svg

<svg width="24" height="24" viewBox="0 0 24 24" fill="none" xmlns="http://www.w3.org/2000/svg">
<path d="M10.5 17.5C10.5 16.6716 9.82843 16 9 16C8.59894 16 8.23465 16.1574 7.96552 16.4138M10.5 17.5C10.5 16.6716 11.1716 16 12 16C12.8284 16 13.5 16.6716 13.5 17.5M10.5 17.5V20.8756M13.5 17.5C13.5 16.6716 14.1716 16 15 16C15.4011 16 15.7653 16.1574 16.0345 16.4138M13.5 17.5V20.8756M7.5 19.796V17.5L7.96552 16.4138M16.5 19.796V17.5L16.0345 16.4138M16.0345 16.4138L12 7L7.96552 16.4138" stroke="#1E293B" stroke-width="2" stroke-linecap="round" stroke-linejoin="round"/>
<path d="M21 12C21 15.3313 19.1901 18.2398 16.5 19.796C15.5889 20.323 14.5769 20.6949 13.5 20.8756C13.0122 20.9574 12.5111 21 12 21C11.4889 21 10.9878 20.9574 10.5 20.8756C9.42311 20.6949 8.41108 20.323 7.5 19.796C4.80989 18.2398 3 15.3313 3 12C3 7.02944 7.02944 3 12 3C16.9706 3 21 7.02944 21 12Z" stroke="#1E293B" stroke-width="2" stroke-linecap="round" stroke-linejoin="round"/>
</svg>

<svg
  width="24"
  height="24"
  viewBox="0 0 24 24"
  xmlns="http://www.w3.org/2000/svg"
  fill="none"
  stroke="currentColor"
  stroke-width="2"
  stroke-linecap="round"
  stroke-linejoin="round"
>
  <path d="M10.5 17.5a1.5 1.5 0 0 0-2.534-1.086M10.5 17.5a1.5 1.5 0 0 1 3 0m-3 0v3.376m3-3.376a1.5 1.5 0 0 1 2.535-1.086M13.5 17.5v3.376m-6-1.08V17.5l.466-1.086m8.534 3.382V17.5l-.465-1.086m0 0L12 7l-4.034 9.414" />
  <path d="M21 12a8.997 8.997 0 0 1-10.5 8.876A8.997 8.997 0 0 1 3 12a9 9 0 0 1 18 0z" />
</svg>
